public/assets/img/program1-4.svg

<svg width="29" height="40" viewBox="0 0 29 40" fill="none" xmlns="http://www.w3.org/2000/svg">
<path d="M4.36824 14.0456C3.81885 14.6692 3.48454 15.4866 3.48454 16.381C3.48454 18.3317 5.07153 19.9188 7.02221 19.9188H7.18588C7.50331 21.921 8.61787 23.6572 10.189 24.782L9.40164 25.6019C9.36828 25.6367 9.33735 25.6732 9.3082 25.7108L4.89614 25.7103C4.89395 25.7103 4.89192 25.7103 4.88981 25.7103C2.19646 25.7103 0.00343759 27.8948 0 30.5834V32.1262C0 32.4498 0.26235 32.7122 0.585952 32.7122C0.909554 32.7122 1.1719 32.4498 1.1719 32.1262V30.5842C1.17456 28.5418 2.84179 26.8822 4.89051 26.8822L9.05945 26.8826L9.88697 31.301C9.94736 31.6235 10.1657 31.8876 10.4711 32.0075C10.584 32.0518 10.7016 32.0736 10.8183 32.0736C11.0173 32.0736 11.2138 32.0102 11.38 31.8871L12.0812 31.3678L13.73 33.4973L11.6119 38.828H6.5047V34.6244C6.5047 34.3008 6.24235 34.0384 5.91874 34.0384C5.59514 34.0384 5.33279 34.3008 5.33279 34.6244V38.828H1.36722C1.25956 38.828 1.1719 38.7404 1.1719 38.6327V34.6799C1.1719 34.3563 0.909554 34.0939 0.585952 34.0939C0.26235 34.0939 0 34.3563 0 34.6799V38.6327C0 39.3865 0.613375 39.9999 1.36722 39.9999H27.4287C28.1825 39.9999 28.7959 39.3865 28.7959 38.6327V30.6196C28.7993 27.9171 26.6136 25.7157 23.9227 25.7123H23.647C23.3234 25.7123 23.0611 25.9746 23.0611 26.2982C23.0611 26.6218 23.3234 26.8842 23.647 26.8842H23.9219C25.9659 26.8869 27.6266 28.5619 27.624 30.6189V38.6329C27.624 38.7405 27.5363 38.8282 27.4287 38.8282H23.4631V34.6245C23.4631 34.3009 23.2007 34.0386 22.8771 34.0386C22.5535 34.0386 22.2912 34.3009 22.2912 34.6245V38.8282H17.184L15.0659 33.4975L16.7111 31.3725L17.4185 31.8921C17.5841 32.0137 17.7794 32.0763 17.9772 32.0763C18.0944 32.0763 18.2126 32.0543 18.3259 32.0096C18.6304 31.8893 18.8481 31.6255 18.9084 31.3038L19.7363 26.8839L21.0904 26.884C21.414 26.884 21.6763 26.6218 21.6763 26.2981C21.6764 25.9745 21.4141 25.7121 21.0905 25.7121L19.4928 25.712C19.4653 25.6761 19.4363 25.6413 19.4052 25.608L18.6202 24.7727C19.5781 24.0837 20.3654 23.1672 20.9047 22.1016H22.041C23.3571 22.1016 24.4277 21.0308 24.4277 19.7149V18.6863C24.9613 18.0666 25.2851 17.2612 25.2851 16.3812C25.2851 15.5012 24.9613 14.6958 24.4277 14.0761V10.0299C24.4277 4.49933 19.9284 0 14.3979 0C8.86749 0 4.36824 4.49933 4.36824 10.0297V14.0456ZM18.6009 26.5802L17.8227 30.7349L15.2264 28.8281L17.8326 25.646L18.5512 26.4105C18.5938 26.4557 18.6123 26.5192 18.6009 26.5802ZM22.041 20.9295H21.3767C21.4772 20.6017 21.5553 20.2641 21.6101 19.9187H21.7474C22.2867 19.9187 22.798 19.7969 23.2558 19.5802V19.7146C23.2558 20.3845 22.7108 20.9295 22.041 20.9295ZM24.1132 16.381C24.1132 17.6855 23.0519 18.7469 21.7474 18.7469H21.7027C21.7027 18.7458 21.7028 18.7448 21.7028 18.7437V14.0318C21.7028 14.0263 21.7025 14.0208 21.7024 14.0153H21.7474C23.0519 14.0152 24.1132 15.0766 24.1132 16.381ZM14.3979 1.1719C18.1878 1.1719 21.4288 3.56454 22.6912 6.91846C21.1315 4.62434 18.6438 2.99195 15.736 2.60405C15.4155 2.56108 15.1205 2.78663 15.0777 3.10734C15.0349 3.42813 15.2602 3.72283 15.581 3.76564C19.9564 4.34933 23.2557 8.12364 23.2557 12.5452V13.1819C22.7978 12.9652 22.2866 12.8434 21.7473 12.8434H21.607C21.5317 12.3729 21.413 11.9108 21.2485 11.4617C21.1663 11.2376 20.9564 11.0856 20.7177 11.0777C18.2333 10.9955 13.6616 10.4878 10.9578 8.01169C10.7546 7.82567 10.4493 7.80621 10.2242 7.96505C8.58951 9.11867 7.5048 10.8874 7.18909 12.8433H7.02213C6.49306 12.8433 5.99117 12.9609 5.54006 13.1699V12.5452C5.54006 10.3912 6.32242 8.31498 7.74301 6.69923C9.15093 5.09786 11.0833 4.05752 13.1842 3.76986C13.5049 3.72595 13.7292 3.43048 13.6853 3.10984C13.6414 2.78921 13.3462 2.56499 13.0253 2.60882C10.6453 2.93468 8.45685 4.1126 6.86299 5.92546C6.59353 6.23196 6.34477 6.55337 6.11664 6.88713C7.38737 3.5497 10.62 1.1719 14.3979 1.1719ZM7.02221 18.7469C5.71772 18.7469 4.65645 17.6855 4.65645 16.381C4.65645 15.0766 5.71772 14.0152 7.02221 14.0152H7.09346C7.09346 14.0207 7.09323 14.0262 7.09323 14.0318V18.7436C7.09323 18.7447 7.0933 18.7457 7.0933 18.7468L7.02221 18.7469ZM8.26513 18.7437V14.0318C8.26513 12.1502 9.1075 10.3752 10.5388 9.19797C12.1602 10.5232 15.1012 11.9928 20.2704 12.2327C20.4433 12.8138 20.5308 13.4174 20.5308 14.0318V18.7437C20.5308 19.5127 20.3915 20.2491 20.1389 20.9296H14.4133C14.0897 20.9296 13.8274 21.1919 13.8274 21.5155C13.8274 21.8391 14.0897 22.1015 14.4133 22.1015H19.5564C18.4642 23.8215 16.5608 24.9638 14.398 24.9638C11.0163 24.9638 8.26513 22.1734 8.26513 18.7437ZM14.3979 26.1357C14.9762 26.1357 15.539 26.067 16.0788 25.9378L14.3859 28.0048L12.7259 25.9401C13.2631 26.0678 13.8229 26.1357 14.3979 26.1357ZM10.9725 30.7307L10.196 26.5847C10.1844 26.5229 10.2035 26.4589 10.2471 26.4135L10.985 25.6449L13.5431 28.8266L10.9725 30.7307ZM14.3832 29.6627L15.7663 30.6786L14.3979 32.446L13.0231 30.6702L14.3832 29.6627ZM14.3979 34.9899L15.9229 38.828H12.873L14.3979 34.9899Z" fill="#ACBDCE"/>
</svg>

<svg width="29" height="40" fill="none" xmlns="http://www.w3.org/2000/svg"><path d="M4.368 14.046a3.522 3.522 0 0 0-.883 2.335 3.542 3.542 0 0 0 3.537 3.538h.164a7.414 7.414 0 0 0 3.003 4.863l-.787.82a1.369 1.369 0 0 0-.094.109H4.89c-2.694 0-4.887 2.184-4.89 4.872v1.543a.586.586 0 0 0 1.172 0v-1.542a3.717 3.717 0 0 1 3.719-3.702h4.168l.828 4.419a.94.94 0 0 0 .931.773.942.942 0 0 0 .562-.187l.701-.52 1.649 2.13-2.118 5.331H6.505v-4.204a.586.586 0 0 0-1.172 0v4.204H1.367a.196.196 0 0 1-.195-.195V34.68a.586.586 0 0 0-1.172 0v3.953C0 39.386.613 40 1.367 40H27.43c.754 0 1.367-.614 1.367-1.367V30.62c.003-2.703-2.182-4.904-4.873-4.908h-.276a.586.586 0 1 0 0 1.172h.275c2.044.003 3.705 1.678 3.702 3.735v8.014a.196.196 0 0 1-.195.195h-3.966v-4.204a.586.586 0 0 0-1.172 0v4.204h-5.107l-2.118-5.33 1.645-2.125.708.52a.942.942 0 0 0 .907.117.941.941 0 0 0 .582-.706l.828-4.42h1.354a.586.586 0 1 0 0-1.172h-1.597a1.393 1.393 0 0 0-.088-.104l-.785-.835a7.421 7.421 0 0 0 2.285-2.671h1.136a2.39 2.39 0 0 0 2.387-2.387v-1.029c.533-.62.857-1.425.857-2.305 0-.88-.324-1.685-.857-2.305V10.03c0-5.53-4.5-10.03-10.03-10.03-5.53 0-10.03 4.5-10.03 10.03v4.016ZM18.601 26.58l-.778 4.155-2.597-1.907 2.607-3.182.718.764a.196.196 0 0 1 .05.17Zm3.44-5.65h-.664c.1-.328.178-.666.233-1.011h.137c.54 0 1.051-.122 1.509-.339v.135c0 .67-.545 1.215-1.215 1.215Zm2.072-4.549a2.369 2.369 0 0 1-2.366 2.366h-.044v-4.732h.044a2.368 2.368 0 0 1 2.366 2.366Zm-9.715-15.21c3.79 0 7.03 2.394 8.293 5.747a10.017 10.017 0 0 0-6.955-4.314.586.586 0 0 0-.155 1.162c4.375.583 7.675 4.358 7.675 8.78v.636a3.517 3.517 0 0 0-1.509-.339h-.14a7.423 7.423 0 0 0-.358-1.381.586.586 0 0 0-.531-.384c-2.485-.082-7.056-.59-9.76-3.066a.586.586 0 0 0-.734-.047 7.417 7.417 0 0 0-3.035 4.878h-.167c-.529 0-1.03.118-1.482.327v-.625c0-2.154.782-4.23 2.203-5.846a8.849 8.849 0 0 1 5.441-2.93.586.586 0 1 0-.159-1.16 10.021 10.021 0 0 0-6.908 4.278c1.27-3.337 4.503-5.715 8.28-5.715ZM7.022 18.748a2.369 2.369 0 0 1-2.366-2.366 2.369 2.369 0 0 1 2.366-2.366h.071v4.732h-.07Zm1.243-.003v-4.712c0-1.882.842-3.657 2.274-4.834 1.621 1.325 4.562 2.795 9.731 3.035.173.58.26 1.184.26 1.799v4.712a6.27 6.27 0 0 1-.391 2.186h-5.726a.586.586 0 1 0 0 1.172h5.143c-1.092 1.72-2.995 2.862-5.158 2.862-3.382 0-6.133-2.79-6.133-6.22Zm6.133 7.392c.578 0 1.141-.069 1.68-.198l-1.692 2.067-1.66-2.065a7.222 7.222 0 0 0 1.672.196Zm-3.425 4.595-.777-4.146a.196.196 0 0 1 .051-.172l.738-.768 2.558 3.182-2.57 1.904Zm3.41-1.068 1.383 1.016-1.368 1.767-1.375-1.776 1.36-1.007Zm.015 5.327 1.525 3.838h-3.05l1.525-3.838Z" fill="#ACBDCE"/></svg>
